packages/icon/src/svg/arrow-down-right.icon.svg

<svg width="24" height="24" viewBox="0 0 24 24" fill="none" xmlns="http://www.w3.org/2000/svg">
<path d="M5.17674 6.58674C5.07911 6.48911 5.07911 6.33082 5.17674 6.23319L6.23319 5.17674C6.33082 5.07911 6.48911 5.07911 6.58674 5.17674L17 15.59V9.24996C17 9.11189 17.1119 8.99996 17.25 8.99996H18.75C18.888 8.99996 19 9.11189 19 9.24996V19H9.24996C9.11189 19 8.99996 18.888 8.99996 18.75V17.25C8.99996 17.1119 9.11189 17 9.24996 17H15.59L5.17674 6.58674Z" fill="white"/>
</svg>

<svg aria-label="arrow down right icon" viewBox="0 0 24 24"><path d="M5.177 6.587a.25.25 0 010-.354l1.056-1.056a.25.25 0 01.354 0L17 15.59V9.25a.25.25 0 01.25-.25h1.5a.25.25 0 01.25.25V19H9.25a.25.25 0 01-.25-.25v-1.5a.25.25 0 01.25-.25h6.34L5.177 6.587z"/></svg>
